X:1
T: Glenlivet
T: Minmore Schottische
C:J. Scott Skinner
R:Strathspey
Q: 128
K:A
M:4/4
L:1/16
|:A,3C E3C D3F A3F|E3A c3A BB,3 B,3C|A,3C E3C D3F A3F|E3A Ge3 cA3 A4|
A,3C E3C D3F A3F|E3A dcBA BB,3 B,3C|A,3C E3C D3F A3F|E3A Ge3 cA3 A2g2|
a3A cf3 e3A c3A|E3A c3A BB,3 B,3g|a3A cf3 e3A c3A|E3A Ge3 cA3 A3g|
a3A cf3 eA3 a3A|e3A c3A BB,3 B,3C|A,3C E3C D3F A3F|E3A Ge3 cA3 A4:|
